material/.icons/material/cards-playing-outline.svg

<svg xmlns="http://www.w3.org/2000/svg" viewBox="0 0 24 24"><path d="M11.19 2.25c.78.01 1.52.48 1.81 1.25l5 11.95c.09.26.14.55.13.8a2.02 2.02 0 01-1.23 1.8L9.53 21.1c-.26.12-.53.15-.79.15A2 2 0 016.93 20L1.97 8.05c-.42-1.01.07-2.18 1.09-2.6l7.36-3.05c.25-.09.51-.15.77-.15m3.48 0h1.45a2 2 0 012 2v6.35l-3.45-8.35m5.46 1.54l1.34.57a1.99 1.99 0 011.09 2.6l-2.43 5.86V3.79m-8.94.43L3.8 7.29 8.77 19.3l7.4-3.06-4.98-12.02M8.65 8.54l3.23 2.41-.44 4.01-3.23-2.42.44-4z"/></svg>

<?xml version="1.0" encoding="UTF-8"?><!DOCTYPE svg PUBLIC "-//W3C//DTD SVG 1.1//EN" "http://www.w3.org/Graphics/SVG/1.1/DTD/svg11.dtd"><svg xmlns="http://www.w3.org/2000/svg" xmlns:xlink="http://www.w3.org/1999/xlink" version="1.1" id="mdi-cards-playing-outline" width="24" height="24" viewBox="0 0 24 24"><path d="M11.19,2.25C11.97,2.26 12.71,2.73 13,3.5L18,15.45C18.09,15.71 18.14,16 18.13,16.25C18.11,17 17.65,17.74 16.9,18.05L9.53,21.1C9.27,21.22 9,21.25 8.74,21.25C7.97,21.23 7.24,20.77 6.93,20L1.97,8.05C1.55,7.04 2.04,5.87 3.06,5.45L10.42,2.4C10.67,2.31 10.93,2.25 11.19,2.25M14.67,2.25H16.12A2,2 0 0,1 18.12,4.25V10.6L14.67,2.25M20.13,3.79L21.47,4.36C22.5,4.78 22.97,5.94 22.56,6.96L20.13,12.82V3.79M11.19,4.22L3.8,7.29L8.77,19.3L16.17,16.24L11.19,4.22M8.65,8.54L11.88,10.95L11.44,14.96L8.21,12.54L8.65,8.54Z" /></svg>
